**kern	**kern	**dynam
*part1	*part1	*part1
*staff2	*staff1	*
*I"Piano	*	*
*clefF4	*clefG2	*
*k[b-e-a-]	*k[b-e-a-]	*
=1	=1	=1
8AA-L	8r	.
8A-^	8e-^ 8f 8a- 8cc	.
8BB-	8r	.
8B-^J	8d^ 8f 8a- 8b-	.
=	=	=
8EE-L	8r	.
8E-	8e-^ 8g 8b-	.
8AA-	8r	.
8A-J	8e-^ 8a- 8cc	.
=	=	=
8BB-L	8r	.
8B-J	8e-^ 8g 8b-	.
8BBB-L	8r	.
8BB-J	8f^ 8b- 8dd	.
=	=	=
8EE-L	8r	.
8E-	8g^ 8b- 8ee-	.
8AA-	8r	.
8A-J	8e-^ 8a- 8cc	.
=	=	=
8BB-L	8r	.
8B-J	8e-^ 8g 8b-	.
8BBB-L	8r	.
8BB-J	8f^ 8b- 8dd	.
=	=	=
8EE- 8E-	8g 8b- 8ee-	.
8r	8r	.
4r	4r	.
=	=	=
4.EE- 4.BB- 4.E-	4.G 4.B- 4.e-	f
8EE- 8BB- 8E-	8G 8B- 8e-	.
=	=	=
2EE-; 2BB- 2E-	2G; 2B- 2e-	.
==	==	==
*-	*-	*-
!!!system-decoration: {(s1,s2)}
